X:21402
T:Jigolo
R:Jig
B:Tuneworks Tunebook 2 (https://www.tuneworks.co.uk/)
G:Tuneworks
Z:Jon Warbrick <jon.warbrick@googlemail.com>
M:6/8
L:1/8
K:A
|: "A" c3 BcB | "A" Ace agf | "E7" e3 gfe | "D" d3 fed |
"A" c3 BcB | "A" Ace agf | "E7" e3 gfe | "E7" dcB"A" A3 :|
|: "E7" B3 BAB | "A" c2 d cBA | "E7" B3 BAB | "A" cea ecA |
"E7" B3 BAB | "A" c2 A Bcd | "E7" e2 e gfe | "E7" dcB"A" A3 :|
